16x16/actions/kr_syncbrowse_on.svg

<svg viewBox="0 0 16 16" xmlns="http://www.w3.org/2000/svg"><path d="m2 2v12h7v-1h-6v-6h10v2h1v-5h-4.992l-2-2-.008.008v-.008h-4zm1 1h3.592l1 1h-.594v.008l-.008-.008-2 2h-1.992z" fill="#8b9cbe"/><path d="m11.5 9a2.5 2.5 0 0 0 -2.5 2.5 2.5 2.5 0 0 0 .416 1.377l.732-.732a1.5 1.5 0 0 1 -.148-.645 1.5 1.5 0 0 1 1.5-1.5 1.5 1.5 0 0 1 .645.148l.732-.732a2.5 2.5 0 0 0 -1.377-.416m2.084 1.123-.732.732a1.5 1.5 0 0 1 .148.645 1.5 1.5 0 0 1 -1.5 1.5 1.5 1.5 0 0 1 -.645-.148l-.732.732a2.5 2.5 0 0 0 1.377.416 2.5 2.5 0 0 0 2.5-2.5 2.5 2.5 0 0 0 -.416-1.377" fill="#da4453"/></svg>

<svg xmlns="http://www.w3.org/2000/svg" viewBox="0 0 16 16"><defs id="defs3051"><style type="text/css" id="current-color-scheme"></style></defs><path style="fill:currentColor;fill-opacity:1;stroke:none;color:#8b9cbe" d="M2 2v12h7v-1H3V7h10v2h1V4H9.008l-2-2L7 2.008V2H3zm1 1h3.592l1 1h-.594v.008L6.99 4l-2 2H2.998z"/><path d="M11.5 9A2.5 2.5 0 0 0 9 11.5a2.5 2.5 0 0 0 .416 1.377l.732-.732A1.5 1.5 0 0 1 10 11.5a1.5 1.5 0 0 1 1.5-1.5 1.5 1.5 0 0 1 .645.148l.732-.732A2.5 2.5 0 0 0 11.5 9m2.084 1.123-.732.732A1.5 1.5 0 0 1 13 11.5a1.5 1.5 0 0 1-1.5 1.5 1.5 1.5 0 0 1-.645-.148l-.732.732A2.5 2.5 0 0 0 11.5 14a2.5 2.5 0 0 0 2.5-2.5 2.5 2.5 0 0 0-.416-1.377" style="fill:currentColor;fill-opacity:1;stroke:none;color:#da4453"/></svg>
